Hatter-kde/actions/16/view-object-histogram-linear.svg

<?xml version="1.0" encoding="UTF-8"?>
<svg viewBox="0 0 16 16" xmlns="http://www.w3.org/2000/svg">
 <defs id="defs3051">
  <style id="current-color-scheme" type="text/css">.ColorScheme-Text {
        color:#363636;
      }</style>
 </defs>
 <path class="ColorScheme-Text" d="m2 2v11 1h1 11v-1h-1v-1h-1v-1-1h-1v1h-1v-1h-1v-4h-1v-3h-1v-1h-1v2h-1v2h-1v3h-1v-7z" fill="currentColor"/>
</svg>

<svg xmlns="http://www.w3.org/2000/svg" viewBox="0 0 16 16">
  <defs id="defs3051">
    <style type="text/css" id="current-color-scheme">
      .ColorScheme-Text {
        color:#363636;
      }
      </style>
  </defs>
 <path style="fill:currentColor;fill-opacity:1;stroke:none" 
       d="m 2,2 0,11 0,1 1,0 11,0 0,-1 -1,0 0,-1 -1,0 0,-1 0,-1 -1,0 0,1 -1,0 0,-1 L 9,10 9,6 8,6 8,3 7,3 7,2 6,2 6,4 5,4 5,6 4,6 4,9 3,9 3,2 Z"
     class="ColorScheme-Text"
     />
</svg>
